X: 1
T: Pipe On The Hob
M: 6/8
L: 1/8
R: jig
Z: abc by J. Walsh
K: Dmix
A \
| "D"d^cd A2G | F2D DED | "C"EDE cBc | E2D "D"D2A |\
| "D"dcB "Am7"cBA | "Bm7"BAG "Am7"A2G | "C"EDE cBc | "C"E2D "D"D2 :|
g \
|  "D"f2d d^cd | f2d d^cd | "C"edB c2d | "C"ede "A"age |\
|  "D"f2d d^cd | f2d d^cd | "C"ede age | "A"ed^c "D"d2 |]
e \
|  "D"f2d d^cd | f2d d^cd | "C"edB c2d | "C"ede "A"age |\
|  "D"fef "C"gfg | "D/B"afa "Am7"g2e | "D"fed "C"eag | "A"ed^c "D"d2 |]


